icons/gallbladder_fill.svg

<svg width="48" height="48" viewBox="0 0 48 48" fill="none" xmlns="http://www.w3.org/2000/svg">
<path d="M34.9664 14.6542C33.7392 15.4285 32.7583 16.3009 32 17.3085V6H30V21.2448C29.5716 20.7616 29.0876 20.342 28.5615 19.985C26.6419 18.6825 24.2416 18.2632 22.1077 18.4814C21.3743 17.5776 20.2546 17 19 17C11.8203 17 6 22.8203 6 30V33H6.01894C6.27426 36.3562 9.07839 39 12.5 39C15.9216 39 18.7257 36.3562 18.9811 33H19V27C19 25.8954 19.949 25.0414 20.9179 24.5111C22.1587 23.8319 23 22.5142 23 21C23 20.8063 22.9862 20.6157 22.9596 20.4293C24.5286 20.3877 26.1575 20.7707 27.4385 21.64C28.9037 22.6342 30 24.3185 30 27V42H32V23.0499C32.1569 21.5076 32.5208 20.2571 33.1416 19.1965C33.7663 18.1293 34.6853 17.1964 36.0336 16.3458C38.4154 14.8432 42.3798 13.5806 44.2459 13.1073L43.7541 11.1686C42.75 11.4233 41.1113 11.909 39.3965 12.5554C39.6645 11.837 39.7683 11.1069 39.7172 10.3901C39.5722 8.35624 38.182 6.67325 36.3162 6.05132L35.6838 7.94868C36.818 8.32675 37.6374 9.34204 37.7223 10.5323C37.8041 11.6796 37.2062 13.2413 34.9664 14.6542Z" fill="black"/>
</svg>

<svg
  xmlns="http://www.w3.org/2000/svg"
  width="24"
  height="24"
  viewBox="0 0 24 24"
  fill="none"
  stroke="currentColor"
  stroke-width="2"
  stroke-linecap="round"
  stroke-linejoin="round"
>
  <path d="M34.966 14.654c-1.227.774-2.208 1.647-2.966 2.654V6h-2v15.245a7.7 7.7 0 0 0-1.439-1.26c-1.92-1.302-4.32-1.722-6.453-1.504A4 4 0 0 0 19 17c-7.18 0-13 5.82-13 13v3h.019a6.5 6.5 0 0 0 12.962 0H19v-6c0-1.105.949-1.959 1.918-2.489a4 4 0 0 0 2.042-4.082c1.569-.041 3.197.342 4.479 1.211C28.904 22.634 30 24.318 30 27v15h2V23.05c.157-1.542.52-2.793 1.142-3.854.624-1.067 1.543-2 2.892-2.85 2.381-1.503 6.346-2.765 8.212-3.239l-.492-1.938c-1.004.254-2.643.74-4.357 1.386a5.1 5.1 0 0 0 .32-2.165c-.145-2.034-1.535-3.717-3.4-4.339l-.633 1.898c1.134.378 1.953 1.393 2.038 2.583.082 1.148-.516 2.71-2.756 4.122" />
</svg>
